X:177
T:Let Us Leave That As It Is
N:"Gaily" "collected by F. O'Neill"
B:O'Neill's 177
Z:Transcribed by henrik.norbeck@mailbox.swipnet.se
M:6/8
L:1/8
K:A
A/G/|EA.A TAG.A|cde f2 a|agec ded|dcAF G2 AGE/D/|
EAA TAGA|cde f2 a|gec dcA|A3 A2:|
d|efg aba|Tgfg efg|aba gec|dcA G2 AGE/D/|
EAA TAGA|cde f2 a|gec dcA|A3 A2||
